!!!!SEGMENT: pl-wumfc--r282--001-015_paderewski-ignacy-jan--exercises-1-exercise-15.krn
!!!cenid: 18xx:3174
!!!COM: Paderewski, Ignacy Jan
!!!COM-rismid: pe30029943
!!!CDT: 1860/11/18-1941/06/29
!!!CNT: Polish
!!!GTL: [Exercises 1]
!!!OTL: [Exercise] 15
!!!OMV: 015
!!!PDT:
!!!AGN:
!!!SMS-siglum: PL-Wumfc
!!!SMS-shelfmark: R282
!!!SMS-shelfwork: 001-015 G
!!!SMS-variant:
!!!SMS-altvar:
!!!NIFC-rismid: 1001158933
!!!URL-scan: http://repozytorium.nifc.pl/skany/pl-wumfc--r282
!!!ONB-nifc: UWAGA: pierwsza grupa ćwiczeń na skanach 0004-0007
!!!AIN: 2 piano
!!!key: G
**kern	**kern
*part2	*part1
*group1	*group1
*staff2	*staff1
*I"[Pianoforte]	*I"[Pianoforte]
*	*I'
*Ipiano	*Ipiano
*ICklav	*ICklav
*clefF4	*clefG2
*k[f#]	*k[f#]
*G:	*G:
*M	*M
=1	=1
!	!LO:TX:a:t=C.f.
4r	1g
4G\	.
4g\	.
4e\	.
=2	=2
4d\	1a
4e\	.
4d\	.
4c\	.
=3	=3
4B\	1b
4c\	.
4B\	.
4A\	.
=4	=4
4G\	1dd
4A\	.
4G\	.
4F#\	.
=5	=5
4E\	1g
4F#\	.
4G\	.
4A\	.
=6	=6
4B\	1f#
4c\	.
4d\	.
4B\	.
=7	=7
4c\	[>1e
4d\	.
4c\	.
4B\	.
=8	=8
4A\	1e]
4B\	.
4A\	.
4G\	.
=9	=9
4F#\	[>1d
4G\	.
4F#\	.
4E\	.
!!linebreak:original
=10	=10
4D\	1d_>
4E\	.
4D\	.
4C\	.
=11	=11
4BB\	1d_>
4C\	.
4BB\	.
4AA\	.
=12	=12
1GG;	1d;]
=13	=13
4C\	1e
4D\	.
4E\	.
4C\	.
=14	=14
4BB\	1f#
4C#X\	.
4D#X\	.
4BB\	.
=15	=15
4E\	1g
4F#\	.
4G\	.
4E\	.
=16	=16
4D\	1a
4E\	.
4F#\	.
4D\	.
=17	=17
*^	*
4ryy	4G\	1b
(4A/	4F#\	.
4B/	4E\	.
4c/	4D\	.
=18	=18	=18
4d/	4C\	1a
4c/	4BB\	.
4B/	4C\	.
4A/	4D\	.
=19	=19	=19
4B/	4BB\	[>1g
4c/	4C\	.
4B/	4BB\	.
4A/	4AA\	.
=20	=20	=20
1G;)	1GG	1g;]
*v	*v	*
!!linebreak:original
=21:|!	=21:|!
4GG\	1b
4AA\	.
4BB\	.
4C\	.
=22	=22
4D\	1b
4E\	.
4D\	.
4BB\	.
=23	=23
4C\	1a
4D\	.
4C\	.
4Fn\	.
=24	=24
4E\	1b
4F#\	.
4E\	.
4D\	.
=25	=25
4C\	1cc
4D\	.
4E\	.
4F#X\	.
=26	=26
4G#X\	1b
4F#X\	.
4G#\	.
4E\	.
=27	=27
4A\	[1a;
4B\	.
4c\	.
4d\	.
=28	=28
4c\	1a;]
4B\	.
2A;\	.
=29	=29
4c\	1e
4B\	.
4c\	.
4A\	.
!!linebreak:original
=30	=30
4d\	1f#
4c\	.
4B\	.
4A\	.
=31	=31
*^	*
4r	4G\	1g
4F#/	4F#\	.
4G/	4G\	.
4E/	4E\	.
*v	*v	*
=32	=32
4F#\	1a
4E\	.
4D\	.
4C\	.
=33	=33
4BB\	1b
4C\	.
4D\	.
4E\	.
=34	=34
4F#\	1a
4E\	.
4F#\	.
4D\	.
=35	=35
4G\	[>1g
4C\	.
4BB\	.
4AA\	.
=36	=36
1GG;	1g;]
==	==
*-	*-
!!!system-decoration: [g1]
!!!ENC: Katarzyna Serwa
!!!END: 2021-11-16
!!!ENC: Berenika Jozajtis
!!!END: 2021-11-11
!!!RDF**kern: > = above
!!!RDF**kern: < = below
